d1
$ every 8 (iter 2)
$ every 4 (rot "<2 4 6 8 10>")
$ note "{[0 0 0(3,16) 0 <~ 3> ~], 1 <2 ~>(3,8,<0 2 1>) 2}"
# s "midi1"
|- note "<24!3 <24 12 0>>"


d1
$ every 6 (off 0.125 (|- note 2))
$ every 8 (iter 2)
$ every 4 (rot "<2 4 6 8 10>")
$ note "{<3! 2 2>(5,8, <0 2 4>)}"
# s "midi1"
|- note 24

d1
$ note "{0(3,8), <5 ! 9>(5,8), <8 ! 12>(5,16)}"
# s "superpiano"
|- note "<12 24>"
# gain 1