

d1
$ sometimesBy 0.2 (superimpose (|- note 12))
$ note (scale "dorian" $ snowball 9 (+) (fast 1.25)
$ (run 5))
# sound "midi1"
# gain 1
# legato 2
|- note 12

d2
$ plyWith 4 (|+ note 12)
$ sometimesBy 0.2 (superimpose (|+ note 12))
$ note (scale "dorian" $ snowball 8 (-) (slow 1.5)
$ (run 6))
# sound "midi2"
# gain 1
# legato 4
